X:96
T:Staten Island Hornpipe
R: reel
M: 4/4
L: 1/8
K: Dmaj
|: A2 | FDFG A2A2 | dfed dcBA | B2GB A2FA | G2E2 E2AG |
FDFG A2A2 | dfed dcBA| d2d2 efge | f2d2 d2 :|
|: fg | agfa gfeg | fedf e2A2 | =c2c2 efge | =c2c2 efge |
agfa gfeg | fedf e2A2 | d2d2 efge | f2d2 d2 :|

